X:1
T:Title
%%score { ( 1 3 4 ) | ( 2 5 ) }
L:1/8
M:4/4
K:C
V:1 treble nm="Grand Piano"
V:3 treble 
V:4 treble 
V:2 bass 
V:5 bass 
V:1
 z4 z2[Q:1/4=100] [CE]>[DF] | [EG]>[EG] [Ec]>[Fd] [Ge]2 [Fd]>[Ec] | [GB]2 A2 A2 D>E | %3
 F>E F>G B2 A2 | [EG]6 [CE]>[DF] | [EG]>[EG] [Ec]>[Fd] [Ge]2 [Gd]>[Gc] | [GB]2 [FA]2 [Ac]2 [GB]>A | %7
 G>G G>c B2 AB | [Ec]6 z2 | z z/ F/ F>F z z/ f/ e>d | c->[Ec-] [Ec-]>[Ec-] [Ec]2 z2 | A6 z2 | %12
 [EG]6 z2 | [EG]>[EG] [Ec]>[Fd] [Ge]2 [Gd]>[Gc] |[M:9/8] [GB]2 [FA]- [FA] [Ac]2- [Ac][GB]>A | %15
[M:4/4] G>G G>c B2 AB |[M:3/4] c6 |] %17
V:2
 z4 z2 [C,G,]>[C,G,] | [C,C]>[C,C] [C,G,]>[C,G,] [C,C]2 [C,C]>[C,C] | %2
 [F,C]2 [F,CF]2 [F,CF]2 [G,B,]>[K:treble][G,C] | [G,D]>[G,^C] [G,D]>[G,E] [G,G]2 [G,B,F]2 | %4
 [C,C]6 [C,G,]>[C,G,] | [C,C]>[C,C] [C,G,]>[C,G,] [C,C]2 [D,B,]>[E,C] | %6
 [F,C]2 [F,C]2 [F,C]2 [F,C]>[K:treble][F,CF] | [G,CE]>[G,CE] [G,CE]>[G,CE] [G,DF]2 [G,DF]2 | %8
 [C,C]6 z2 | [G,B,F]>[G,B,] [G,B,]>[G,B,] [G,B,]2 z2 | [C,C]>[C,C] [C,G,]>[C,G,] [C,C]2 z2 | %11
 F->[F,F-] [F,F-]>[F,F-] F>A G>F | C,>C, C,>C, C,2 [C,G,C]>[C,G,] | %13
 [C,C]>[C,C] [C,G,]>[C,G,] [C,C]2 [D,B,]>[E,C] | %14
[M:9/8] [F,C]2 [F,C]- [F,C] [F,C]2- [F,C][F,C]>[K:treble][F,CF] | %15
[M:4/4] [G,CE]>[G,CE] [G,CE]>[G,CE] [G,DF]2 [G,DF]2 |[M:3/4][K:bass] z2 (3A,A,A, G,2 |] %17
V:3
 x8 | x8 | x8 | x8 | x8 | x8 | x8 | x8 | x8 | G6 z2 | E2 z2 z4 | z z/ C/ C>C z z/ c/ B>A | %12
 C>C C>C C2 E>[DF] | x8 |[M:9/8] x9 |[M:4/4] x8 |[M:3/4] [CE]2 (3FFF E2 |] %17
V:4
 x8 | x8 | x8 | x8 | x8 | x8 | x8 | x8 | x8 | z4 F2 z2 | x8 | z4 C2 z2 | x8 | x8 |[M:9/8] x9 | %15
[M:4/4] x8 |[M:3/4] x6 |] %17
V:5
 x8 | x8 | x15/2[K:treble] x/ | x8 | x8 | x8 | x15/2[K:treble] x/ | x8 | x8 | x8 | x8 | %11
 [F,C]2 z2 F,2 z2 | x8 | x8 |[M:9/8] x17/2[K:treble] x/ |[M:4/4] x8 |[M:3/4][K:bass] C,6 |] %17

